X:109
T: Der junge Held
N: Q0060
O: Mitteleuropa, Deutschland
R: Ballade, Verfuehrung, Standesunterschied
M: 4/4
L: 1/8
K: G
G2 | G2_B2A2A2 | D6
A2 | _B2d2c2B2 | A6
F2 | G3A_B2cB | AGFAG2
G2 | G2_B2A2A2 | D6
A2 | _B2d2c2B2 | A6
F2 | G3A_B2cB | AGFAG2

